extensions/content/explorer/asset/icons/mimetype/svg/video.svg

<?xml version="1.0" encoding="UTF-8" standalone="no"?>
<svg
   xmlns:dc="http://purl.org/dc/elements/1.1/"
   xmlns:cc="http://creativecommons.org/ns#"
   xmlns:rdf="http://www.w3.org/1999/02/22-rdf-syntax-ns#"
   xmlns:svg="http://www.w3.org/2000/svg"
   xmlns="http://www.w3.org/2000/svg"
   xmlns:sodipodi="http://sodipodi.sourceforge.net/DTD/sodipodi-0.dtd"
   xmlns:inkscape="http://www.inkscape.org/namespaces/inkscape"
   id="video"
   width="100%"
   height="100%"
   viewBox="0 0 16 16"
   xml:space="preserve">
   <defs
     id="defs39" /><sodipodi:namedview
     pagecolor="#ffffff"
     bordercolor="#666666"
     borderopacity="1"
     objecttolerance="10"
     gridtolerance="10"
     guidetolerance="10"
     inkscape:pageopacity="0"
     inkscape:pageshadow="2"
     inkscape:window-width="1334"
     inkscape:window-height="653"
     id="namedview37"
     showgrid="false"
     inkscape:zoom="5.5028446"
     inkscape:cx="25.311905"
     inkscape:cy="17.267001"
     inkscape:window-x="0"
     inkscape:window-y="46"
     inkscape:window-maximized="0"
     inkscape:current-layer="video" /><g
     id="g3"
     fill="currentColor"
     transform="matrix(0.03297535,0,0,0.03297535,-2.851645e-7,-3.2469106e-5)"><path
       d="m 0,30.326172 0,424.560548 485.21094,0 0,-424.560548 -485.21094,0 z m 30.326172,30.324219 60.652344,0 0,30.326171 -60.652344,0 0,-30.326171 z m 90.978518,0 60.65039,0 0,30.326171 -60.65039,0 0,-30.326171 z m 90.97656,0 60.65039,0 0,30.326171 -60.65039,0 0,-30.326171 z m 90.97461,0 60.65234,0 0,30.326171 -60.65234,0 0,-30.326171 z m 90.98047,0 60.65234,0 0,30.326171 -60.65234,0 0,-30.326171 z m -363.910158,60.652339 424.562498,0 0,242.60157 -424.562498,0 0,-242.60157 z m 202.589848,54.17774 c -24.87769,0.0249 -47.7405,0.42558 -54.98243,1.1875 -14.91885,1.56963 -20.04146,4.24722 -24.29882,12.70312 -5.49014,10.90445 -6.87472,22.21494 -6.79297,55.48243 0.11575,47.09422 4.80042,60.04201 23.10547,63.85937 3.58754,0.74814 36.98822,1.16642 77.26171,0.96875 79.31948,-0.38928 76.69169,-0.0611 83.53711,-10.43164 6.90826,-10.46538 8.02082,-19.39746 7.52539,-60.44531 -0.47769,-39.59322 4.37356,-59.56107 -38.2871,-62.25977 -15.29814,-0.73931 -42.19068,-1.0894 -67.06836,-1.06445 z m -5.78907,36.35937 c 9.69219,5.97203 28.80842,18.55458 46.69532,30.4336 -10.59045,7.94692 -32.18295,22.61995 -46.36915,31.3789 -0.25688,-14.90949 0.10555,-45.17342 -0.32617,-61.8125 z m -196.800778,182.39649 60.652344,0 0,30.32226 -60.652344,0 0,-30.32226 z m 90.978518,0 60.65039,0 0,30.32226 -60.65039,0 0,-30.32226 z m 90.97851,0 60.65039,0 0,30.32226 -60.65039,0 0,-30.32226 z m 90.97266,0 60.65234,0 0,30.32226 -60.65234,0 0,-30.32226 z m 90.98047,0 60.65234,0 0,30.32226 -60.65234,0 0,-30.32226 z"
       id="path5"
       inkscape:connector-curvature="0" /></g><g
     transform="translate(81.176929,-370.5688)"
     id="layer1"
     inkscape:label="Layer 1"><rect
       y="103.21936"
       x="128.14583"
       height="84.126099"
       width="79.489227"
       id="rect11913"
       style="display:inline;fill:none;fill-opacity:1;stroke:none;stroke-width:4.56684542;stroke-linecap:round;stroke-linejoin:round;stroke-miterlimit:4;stroke-dasharray:none;stroke-dashoffset:0;stroke-opacity:1" /></g></svg>

<?xml version="1.0" encoding="UTF-8" standalone="no"?>
<svg
   xmlns:dc="http://purl.org/dc/elements/1.1/"
   xmlns:cc="http://creativecommons.org/ns#"
   xmlns:rdf="http://www.w3.org/1999/02/22-rdf-syntax-ns#"
   xmlns:svg="http://www.w3.org/2000/svg"
   xmlns="http://www.w3.org/2000/svg"
   xmlns:sodipodi="http://sodipodi.sourceforge.net/DTD/sodipodi-0.dtd"
   xmlns:inkscape="http://www.inkscape.org/namespaces/inkscape"
   version="1.1"
   id="video"
   x="0px"
   y="0px"
   width="100%"
   height="100%"
   viewBox="0 0 485.211 485.21"
   style="enable-background:new 0 0 485.211 485.21;"
   xml:space="preserve"
   inkscape:version="0.91 r13725"
   sodipodi:docname="video.svg"><metadata
     id="metadata10"><rdf:RDF><cc:Work
         rdf:about=""><dc:format>image/svg+xml</dc:format><dc:type
           rdf:resource="http://purl.org/dc/dcmitype/StillImage" /></cc:Work></rdf:RDF></metadata><defs
     id="defs39" /><sodipodi:namedview
     pagecolor="#ffffff"
     bordercolor="#666666"
     borderopacity="1"
     objecttolerance="10"
     gridtolerance="10"
     guidetolerance="10"
     inkscape:pageopacity="0"
     inkscape:pageshadow="2"
     inkscape:window-width="1334"
     inkscape:window-height="653"
     id="namedview37"
     showgrid="false"
     inkscape:zoom="0.68785558"
     inkscape:cx="-21.258028"
     inkscape:cy="242.605"
     inkscape:window-x="0"
     inkscape:window-y="46"
     inkscape:window-maximized="0"
     inkscape:current-layer="video" /><g
     id="g3"
     fill="currentColor"><path
       d="M 0 30.326172 L 0 454.88672 L 485.21094 454.88672 L 485.21094 30.326172 L 0 30.326172 z M 30.326172 60.650391 L 90.978516 60.650391 L 90.978516 90.976562 L 30.326172 90.976562 L 30.326172 60.650391 z M 121.30469 60.650391 L 181.95508 60.650391 L 181.95508 90.976562 L 121.30469 90.976562 L 121.30469 60.650391 z M 212.28125 60.650391 L 272.93164 60.650391 L 272.93164 90.976562 L 212.28125 90.976562 L 212.28125 60.650391 z M 303.25586 60.650391 L 363.9082 60.650391 L 363.9082 90.976562 L 303.25586 90.976562 L 303.25586 60.650391 z M 394.23633 60.650391 L 454.88867 60.650391 L 454.88867 90.976562 L 394.23633 90.976562 L 394.23633 60.650391 z M 30.326172 121.30273 L 454.88867 121.30273 L 454.88867 363.9043 L 30.326172 363.9043 L 30.326172 121.30273 z M 232.91602 175.48047 C 208.03833 175.50542 185.17552 175.90605 177.93359 176.66797 C 163.01474 178.2376 157.89213 180.91519 153.63477 189.37109 C 148.14463 200.27554 146.76005 211.58603 146.8418 244.85352 C 146.95755 291.94774 151.64222 304.89553 169.94727 308.71289 C 173.53481 309.46103 206.93549 309.87931 247.20898 309.68164 C 326.52846 309.29236 323.90067 309.62053 330.74609 299.25 C 337.65435 288.78462 338.76691 279.85254 338.27148 238.80469 C 337.79379 199.21147 342.64504 179.24362 299.98438 176.54492 C 284.68624 175.80561 257.7937 175.45552 232.91602 175.48047 z M 227.12695 211.83984 C 236.81914 217.81187 255.93537 230.39442 273.82227 242.27344 C 263.23182 250.22036 241.63932 264.89339 227.45312 273.65234 C 227.19624 258.74285 227.55867 228.47892 227.12695 211.83984 z M 30.326172 394.23633 L 90.978516 394.23633 L 90.978516 424.55859 L 30.326172 424.55859 L 30.326172 394.23633 z M 121.30469 394.23633 L 181.95508 394.23633 L 181.95508 424.55859 L 121.30469 424.55859 L 121.30469 394.23633 z M 212.2832 394.23633 L 272.93359 394.23633 L 272.93359 424.55859 L 212.2832 424.55859 L 212.2832 394.23633 z M 303.25586 394.23633 L 363.9082 394.23633 L 363.9082 424.55859 L 303.25586 424.55859 L 303.25586 394.23633 z M 394.23633 394.23633 L 454.88867 394.23633 L 454.88867 424.55859 L 394.23633 424.55859 L 394.23633 394.23633 z "
       id="path5" /></g><g
     transform="translate(81.176929,98.641195)"
     id="layer1"
     inkscape:label="Layer 1"><rect
       y="103.21936"
       x="128.14583"
       height="84.126099"
       width="79.489227"
       id="rect11913"
       style="display:inline;fill:none;fill-opacity:1;stroke:none;stroke-width:4.56684542;stroke-linecap:round;stroke-linejoin:round;stroke-miterlimit:4;stroke-dasharray:none;stroke-dashoffset:0;stroke-opacity:1" /></g></svg>
